X:1
T:Granny, Will Your Dog Bite?
M:2/4
L:1/16
Z:jason
B:From playing of Bob Walters
K:A
FG | A2A2 A,B,CE | DEFD E2EE | FEDF EDCE | DEFD E2FG |
A2A2 A,B,CE | DEFD E2cd | e2eg fecA | BAGB A2 :|
|:cd | efed cAcd | edef =g2 gf | efed cAcd | ea2b a2gf |
efed cAcd | edef =gagf | efed cBAc | BAGB A2:|

